src/assets/images/currencies/xmr.svg

<svg height="32" viewBox="0 0 32 32" width="32" xmlns="http://www.w3.org/2000/svg"><path d="m16 8c.5252875 0 1.0455285.05123924 1.5607225.15371774.515194.10247849 1.0154415.25422712 1.5007445.45524593.485302.20101881.946333.44744523 1.383094.73927933s.8408585.62346815 1.2122925.9949026c.3714345.3714342.703068.7755315.994902 1.2122919.2918335.4367608.5382605.8977919.7392785 1.3830944.2010185.4853024.352768.9855509.455247 1.5007453.102478.5151939.153719 1.0354347.153719 1.5607228 0 .5252875-.051241 1.0455285-.15372 1.5607225s-.2542275 1.0154415-.455246 1.5007445c-.201018.485302-.447445.946333-.7392785 1.383094-.291834.436761-.6234675.8408585-.994902 1.2122925-.371434.3714345-.7755315.703068-1.2122925.994902-.436761.2918335-.897792.5382605-1.383094.7392785-.485303.2010185-.9855505.352768-1.5007445.455247-.515194.102478-1.035435.153719-1.5607225.153719-.5252881 0-1.0455289-.051241-1.5607233-.15372s-1.0154424-.2542275-1.5007448-.455246c-.4853024-.201018-.9463336-.447445-1.3830943-.7392785-.4367604-.291834-.8408578-.6234675-1.212292-.994902-.37143445-.371434-.7030686-.7755315-.9949027-1.2122925-.291834-.436761-.53826042-.897792-.73927923-1.383094-.20101881-.485303-.35276744-.9855505-.45524593-1.5007445-.1024785-.515194-.15371774-1.035435-.15371774-1.5607225 0-.5252881.05123924-1.0455289.15371774-1.5607233.10247849-.5151944.25422712-1.0154424.45524593-1.5007448.20101881-.4853025.44744523-.9463336.73927933-1.3830944.2918341-.4367604.62346815-.8408577.9949026-1.2122919.3714342-.37143445.7755316-.7030686 1.212292-.9949027.4367607-.291834.8977919-.53826042 1.3830943-.73927923s.9855509-.35276744 1.5007453-.45524593c.5151939-.1024785 1.0354347-.15371774 1.5607228-.15371774zm2.8904909 7.9364723-1.8791574 1.8996514-.9934719.9954667-1.0119473-.9954667-1.897019-1.8996514v3.5279235h-2.7999504c1.1739345 1.9181539 3.2877552 3.2022722 5.6910568 3.2022722.5716983.0003551 1.1341077-.071852 1.6872267-.216624.5531184-.1447732 1.0788797-.3573824 1.5772869-.6378265.4984072-.2804459.9531787-.6195688 1.3643157-1.0173681.4111382-.3977988.7652137-.8412835 1.0622272-1.3304536h-2.8005673zm-2.8904904-6.60313897c-3.6856376 0-6.66666717 2.98516757-6.66666717 6.67591787.00231196.7237949.11666685 1.4293791.34306492 2.116755h1.98755835v-5.6089063l4.3360433 4.3420603 4.3360435-4.3420608v5.6089068h1.9869426c.2266069-.6873432.3411677-1.3929274.3436807-2.116755 0-3.6907509-2.9810298-6.67591787-6.6666662-6.67591787z" fill="#ff9580" fill-rule="evenodd"/></svg>

<svg xmlns="http://www.w3.org/2000/svg" width="32" height="32" viewBox="0 0 32 32">
  <path fill="#FF9580" fill-rule="evenodd" d="M16,8 C16.5252875,8 17.0455285,8.05123924 17.5607225,8.15371774 C18.0759165,8.25619623 18.576164,8.40794486 19.061467,8.60896367 C19.546769,8.80998248 20.0078,9.0564089 20.444561,9.348243 C20.881322,9.6400771 21.2854195,9.97171115 21.6568535,10.3431456 C22.028288,10.7145798 22.3599215,11.1186771 22.6517555,11.5554375 C22.943589,11.9921983 23.190016,12.4532294 23.391034,12.9385319 C23.5920525,13.4238343 23.743802,13.9240828 23.846281,14.4392772 C23.948759,14.9544711 24,15.4747119 24,16 C24,16.5252875 23.948759,17.0455285 23.84628,17.5607225 C23.743801,18.0759165 23.5920525,18.576164 23.391034,19.061467 C23.190016,19.546769 22.943589,20.0078 22.6517555,20.444561 C22.3599215,20.881322 22.028288,21.2854195 21.6568535,21.6568535 C21.2854195,22.028288 20.881322,22.3599215 20.444561,22.6517555 C20.0078,22.943589 19.546769,23.190016 19.061467,23.391034 C18.576164,23.5920525 18.0759165,23.743802 17.5607225,23.846281 C17.0455285,23.948759 16.5252875,24 16,24 C15.4747119,24 14.9544711,23.948759 14.4392767,23.84628 C13.9240823,23.743801 13.4238343,23.5920525 12.9385319,23.391034 C12.4532295,23.190016 11.9921983,22.943589 11.5554376,22.6517555 C11.1186772,22.3599215 10.7145798,22.028288 10.3431456,21.6568535 C9.97171115,21.2854195 9.640077,20.881322 9.3482429,20.444561 C9.0564089,20.0078 8.80998248,19.546769 8.60896367,19.061467 C8.40794486,18.576164 8.25619623,18.0759165 8.15371774,17.5607225 C8.05123924,17.0455285 8,16.5252875 8,16 C8,15.4747119 8.05123924,14.9544711 8.15371774,14.4392767 C8.25619623,13.9240823 8.40794486,13.4238343 8.60896367,12.9385319 C8.80998248,12.4532294 9.0564089,11.9921983 9.348243,11.5554375 C9.6400771,11.1186771 9.97171115,10.7145798 10.3431456,10.3431456 C10.7145798,9.97171115 11.1186772,9.640077 11.5554376,9.3482429 C11.9921983,9.0564089 12.4532295,8.80998248 12.9385319,8.60896367 C13.4238343,8.40794486 13.9240828,8.25619623 14.4392772,8.15371774 C14.9544711,8.05123924 15.4747119,8 16,8 Z M18.8904909,15.9364723 L17.0113335,17.8361237 L16.0178616,18.8315904 L15.0059143,17.8361237 L13.1088953,15.9364723 L13.1088953,19.4643958 L10.3089449,19.4643958 C11.4828794,21.3825497 13.5967001,22.666668 16.0000017,22.666668 C16.5717,22.6670231 17.1341094,22.594816 17.6872284,22.450044 C18.2403468,22.3052708 18.7661081,22.0926616 19.2645153,21.8122175 C19.7629225,21.5317716 20.217694,21.1926487 20.628831,20.7948494 C21.0399692,20.3970506 21.3940447,19.9535659 21.6910582,19.4643958 L21.6910582,19.4643958 L18.8904909,19.4643958 L18.8904909,15.9364723 Z M16.0000005,9.33333333 C12.3143629,9.33333333 9.33333333,12.3185009 9.33333333,16.0092512 C9.33564529,16.7330461 9.45000018,17.4386303 9.67639825,18.1260062 L9.67639825,18.1260062 L11.6639566,18.1260062 L11.6639566,12.5170999 L15.9999999,16.8591602 L20.3360434,12.5170994 L20.3360434,18.1260062 L22.322986,18.1260062 C22.5495929,17.438663 22.6641537,16.7330788 22.6666667,16.0092512 C22.6666667,12.3185003 19.6856369,9.33333333 16.0000005,9.33333333 Z"/>
</svg>
